z_dist/img/icons/crypto/unus-sed-leo-LEO.svg

<svg width="64" height="64" viewBox="0 0 64 64" fill="none" xmlns="http://www.w3.org/2000/svg">
<rect y="0.000488281" width="64" height="64" rx="4" fill="black"/>
<path d="M21.8521 28.9477H21.8713L22.1977 29.0629L22.505 29.1781L22.8314 29.2741L23.1386 29.4085L23.465 29.5237L23.7723 29.6389L24.0987 29.7542L24.4059 29.8694L24.7132 29.9846L25.0204 30.0998L25.3468 30.215L25.6541 30.3494L25.9805 30.4454L26.2877 30.5606L26.6142 30.6758L26.9214 30.8103L27.2478 30.9255L27.5551 31.0215L27.8623 31.1367L28.1887 31.2711L28.5152 31.3863V30.8871V30.8103V30.407V30.119V29.9078V29.4085V28.9285V28.4292V27.9492V27.4307V26.9507V26.8931H28.1311H27.7663H27.7279H27.3246H27.0174H26.9022H26.499H26.2877H26.0765H25.6541H25.5389H25.2508H24.8476H24.8284H24.8092H24.4251H24.0795H24.0219H23.5995H23.3306H22.601H21.8713H21.8521H21.4296L21.1224 27.0467L20.3927 27.4307L19.6439 27.834L18.895 28.1988L18.1845 28.5828L17.4356 28.9861L16.6868 29.3509L15.9571 29.7542L15.2082 30.1382L14.4785 30.503L13.7489 30.9063L13.0768 31.2519L13 42.2546L13.7489 42.7731L14.4785 43.2915L15.2082 43.7908L15.9571 44.3284L16.6868 44.8469L17.4356 45.3653L17.7621 45.6149L18.1845 45.0773L18.895 44.1172L18.9718 44.0212L18.895 43.9636L18.1845 43.4451L17.4356 42.9267L16.6868 42.4082L15.9571 41.8898L15.2082 41.3521L15.0162 41.2369L15.0738 32.3272L15.2082 32.2504L15.9571 31.8856L16.6868 31.5207L17.4356 31.1559L18.1845 30.7911L18.895 30.407L19.6439 30.0422L20.3927 29.6965L21.1224 29.3125L21.8521 28.9477Z" fill="url(#paint0_linear_573_470562)"/>
<path d="M34.5651 49.9353L33.9506 50.185L33.2593 50.473L32.5681 50.7418L31.8768 51.0298L31.5696 51.1451L31.2047 50.9722L30.5135 50.6074L29.8222 50.281L29.1501 49.9161L28.4589 49.5705L27.7676 49.2441L27.0763 48.8792L26.3851 48.5336L25.6938 48.188L25.0025 47.8423L24.3113 47.4775L23.6584 47.1511L22.9671 46.8054L22.8903 46.767V37.7805H22.2758H21.5846H20.8933V47.9959L21.5846 48.3224L22.2758 48.668L22.9671 49.0328L23.6584 49.3593L24.3113 49.7241L25.0025 50.0697L25.6938 50.4154L26.3851 50.761L27.0763 51.1067L27.7676 51.4523L28.4589 51.7979L29.1501 52.1628L29.8222 52.4892L30.5135 52.854L31.2047 53.1805L31.4736 53.3341L31.8768 53.1421L32.5681 52.8924L33.2593 52.6044L33.9506 52.3164L34.6227 52.0475L35.314 51.7787L34.6227 50.0505L34.5651 49.9353Z" fill="url(#paint1_linear_573_470562)"/>
<path d="M46.8334 37.4538L46.8718 41.6782L46.699 41.8318L45.5277 42.6383L44.3563 43.4832L43.185 44.328L42.0137 45.1537L40.8424 45.9794L39.6903 46.8243L38.519 47.65L37.8277 48.1492L37.3476 47.7844L36.1955 46.8819L35.0242 45.9986L33.8529 45.0961L32.7008 44.2128L32.4895 44.0592V39.5084L32.7008 39.3163L33.8529 38.0874L35.0242 36.8777L36.1955 35.6488L37.3476 34.4391L38.4805 33.2485H37.3476H36.1955H35.0242H33.8529H32.7008H31.5103H30.3389H29.1868H28.0155H26.8442H25.6921H24.5208L25.6921 34.4775L26.8442 35.6872L28.0155 36.8969L29.1868 38.1258L30.3389 39.3355L30.5118 39.5084V45.0193L31.5103 45.8066L32.7008 46.7091L33.8529 47.5924L35.0242 48.4949L36.1955 49.3781L37.3476 50.2806L37.7701 50.6071L38.519 50.0694L39.6903 49.2629L40.8424 48.4181L42.0137 47.5732L43.185 46.7667L44.3563 45.9218L45.5277 45.0769L46.699 44.2704L47.8703 43.4256L48.8304 42.7151L49.0224 37.5306L47.8703 37.4922L46.8334 37.4538Z" fill="url(#paint2_linear_573_470562)"/>
<path d="M14.9016 27.6222H15.0361L15.0553 21.9768L15.8041 21.4967L16.745 20.9399L17.6667 20.383L18.5884 19.807L19.5101 19.2501L20.451 18.6741L21.3535 18.1172L22.2944 17.5603L23.2161 16.9843L24.157 16.4082H24.1762L25.0595 16.9267L26.0004 17.4451L26.9221 17.9828L27.8437 18.5012L28.7654 19.0197L29.6871 19.5381L30.6088 20.0758L31.5113 20.5943L31.5497 20.5174L32.4714 18.8469L31.5497 18.3092L30.6088 17.7908L29.6871 17.2723L28.7654 16.7539L27.8437 16.2162L26.9221 15.6978L26.0004 15.1793L25.0595 14.6417L24.157 14.1232L24.1186 14.104L23.2161 14.6417L22.2944 15.2177L21.3535 15.7938L20.451 16.3698L19.5101 16.9267L18.5884 17.4835L17.6667 18.0596L16.745 18.6165L15.8041 19.1925L14.9016 19.7494L13.9608 20.3062L13.0775 20.8631L13.0391 27.603H13.9608L14.9016 27.6222Z" fill="url(#paint3_linear_573_470562)"/>
<path d="M51 22.4574L50.52 22.0734L50.0399 21.6893L49.5599 21.2861L49.0798 20.9021L48.5998 20.518L48.1005 20.134L47.6205 19.75L47.1404 19.3659L46.6412 18.9627L46.2763 18.6938L46.1419 18.8475L45.6619 19.4427L45.1818 20.0572L45.0474 20.2108L45.1818 20.3452L45.6619 20.7485L46.1419 21.1517L46.6412 21.5549L47.1404 21.9582L47.6205 22.3806L48.1005 22.7839L48.5998 23.1871L48.8302 23.3791L48.8494 32.4616L48.5998 32.6344L48.1005 32.9417L47.6205 33.2489L47.1404 33.5561L46.6412 33.8634L46.1419 34.1706L45.6619 34.4778L45.1818 34.7851L44.7018 35.0923L44.2217 35.3995L43.7417 35.7067L43.2424 36.014L42.7624 36.3212L42.2823 36.6284L41.8023 36.9357L41.303 37.2429L40.823 37.5501L41.303 38.3182L41.8023 39.0863L41.8791 39.2207L42.2823 38.9711L42.7624 38.683L43.2424 38.3758L43.7417 38.0878L44.2217 37.7614L44.7018 37.4733L45.1818 37.1661L45.6619 36.8781L46.1419 36.5708L46.6412 36.2828L47.1404 35.9564L47.6205 35.6683L48.1005 35.3611L48.5998 35.0731L49.0798 34.7659L49.5599 34.4778L50.0399 34.1514L50.52 33.8634L51 33.5561V22.4574Z" fill="url(#paint4_linear_573_470562)"/>
<path d="M35.1582 27.8722V28.3714V28.8707V29.3699V29.8884V30.4068V30.9061V31.4053V31.7894L35.3118 31.7317L35.9647 31.4821L36.6175 31.2133L37.2512 30.9637L37.9041 30.6948L38.5569 30.426L39.1906 30.1764L39.8434 29.9076L40.4963 29.6579L41.13 29.3891L41.7828 29.1395L42.4165 28.8707V28.3714V28.1794V26.8545V16.9847L41.6868 16.5238L40.938 16.1014L40.1891 15.6789L39.4594 15.2181L38.7105 14.7956L37.9617 14.3732L37.232 13.9316L36.4831 13.4899L35.7534 13.0483L35.0046 12.6258L34.2557 12.1842L33.526 11.7425L32.7963 11.3201L32.0475 10.8977L31.6442 10.6672L31.2986 10.8593L30.5497 11.2625L29.8008 11.6465L29.0904 12.069L28.3415 12.4722L27.5926 12.8563L26.8438 13.2787L27.5926 13.7011L28.3415 14.1236L28.8023 14.4116L29.0904 14.258L29.8008 13.874L30.5497 13.4707L31.2986 13.0867L31.5866 12.9331L32.0475 13.2019L32.7963 13.6243L33.526 14.0468L34.2557 14.4884L35.0046 14.9301L35.7534 15.3525L36.4831 15.7941L37.232 16.2358L37.9617 16.6582L38.7105 17.0807L39.4594 17.5415L40.1891 17.964L40.4387 18.0984V26.8545H40.2659H40.1891H39.8434H39.4594H39.421H38.9794H38.7105H38.5569H38.1345H37.9617H37.712H37.2896H37.232H36.8672H36.4831H36.4447H36.0031H35.7534H35.5806H35.2542H35.1966" fill="url(#paint5_linear_573_470562)"/>
<path d="M35.1589 31.7896L42.4173 28.8709L35.1589 26.8547" fill="url(#paint6_linear_573_470562)"/>
<path d="M28.5162 31.7895V26.9314L21.8723 28.9092L28.5162 31.7703" fill="url(#paint7_linear_573_470562)"/>
<defs>
<linearGradient id="paint0_linear_573_470562" x1="13.0008" y1="26.8988" x2="13.0008" y2="45.6073" gradientUnits="userSpaceOnUse">
<stop stop-color="#F6E93D"/>
<stop offset="0.13" stop-color="#F8E330"/>
<stop offset="0.35" stop-color="#F7C730"/>
<stop offset="0.64" stop-color="#F59C2E"/>
<stop offset="0.98" stop-color="#EB5E2C"/>
<stop offset="1" stop-color="#EB5C2C"/>
</linearGradient>
<linearGradient id="paint1_linear_573_470562" x1="20.9006" y1="37.7882" x2="20.9006" y2="53.3322" gradientUnits="userSpaceOnUse">
<stop stop-color="#F6E93D"/>
<stop offset="0.13" stop-color="#F8E330"/>
<stop offset="0.35" stop-color="#F7C730"/>
<stop offset="0.64" stop-color="#F59C2E"/>
<stop offset="0.98" stop-color="#EB5E2C"/>
<stop offset="1" stop-color="#EB5C2C"/>
</linearGradient>
<linearGradient id="paint2_linear_573_470562" x1="24.5144" y1="33.2466" x2="24.5144" y2="50.6128" gradientUnits="userSpaceOnUse">
<stop stop-color="#F6E93D"/>
<stop offset="0.13" stop-color="#F8E330"/>
<stop offset="0.35" stop-color="#F7C730"/>
<stop offset="0.64" stop-color="#F59C2E"/>
<stop offset="0.98" stop-color="#EB5E2C"/>
<stop offset="1" stop-color="#EB5C2C"/>
</linearGradient>
<linearGradient id="paint3_linear_573_470562" x1="13.0409" y1="14.1098" x2="13.0409" y2="27.6241" gradientUnits="userSpaceOnUse">
<stop stop-color="#F6E93D"/>
<stop offset="0.13" stop-color="#F8E330"/>
<stop offset="0.35" stop-color="#F7C730"/>
<stop offset="0.64" stop-color="#F59C2E"/>
<stop offset="0.98" stop-color="#EB5E2C"/>
<stop offset="1" stop-color="#EB5C2C"/>
</linearGradient>
<linearGradient id="paint4_linear_573_470562" x1="40.8293" y1="18.69" x2="40.8293" y2="39.2226" gradientUnits="userSpaceOnUse">
<stop stop-color="#F6E93D"/>
<stop offset="0.13" stop-color="#F8E330"/>
<stop offset="0.35" stop-color="#F7C730"/>
<stop offset="0.64" stop-color="#F59C2E"/>
<stop offset="0.98" stop-color="#EB5E2C"/>
<stop offset="1" stop-color="#EB5C2C"/>
</linearGradient>
<linearGradient id="paint5_linear_573_470562" x1="26.8397" y1="10.6672" x2="26.8397" y2="31.7951" gradientUnits="userSpaceOnUse">
<stop stop-color="#F6E93D"/>
<stop offset="0.13" stop-color="#F8E330"/>
<stop offset="0.35" stop-color="#F7C730"/>
<stop offset="0.64" stop-color="#F59C2E"/>
<stop offset="0.98" stop-color="#EB5E2C"/>
<stop offset="1" stop-color="#EB5C2C"/>
</linearGradient>
<linearGradient id="paint6_linear_573_470562" x1="35.1527" y1="26.8682" x2="35.1527" y2="31.8012" gradientUnits="userSpaceOnUse">
<stop stop-color="#F6E93D"/>
<stop offset="0.13" stop-color="#F8E330"/>
<stop offset="0.35" stop-color="#F7C730"/>
<stop offset="0.64" stop-color="#F59C2E"/>
<stop offset="0.98" stop-color="#EB5E2C"/>
<stop offset="1" stop-color="#EB5C2C"/>
</linearGradient>
<linearGradient id="paint7_linear_573_470562" x1="28.0579" y1="31.1425" x2="28.9223" y2="26.7007" gradientUnits="userSpaceOnUse">
<stop stop-color="#F6E93D"/>
<stop offset="0.13" stop-color="#F8E330"/>
<stop offset="0.35" stop-color="#F7C730"/>
<stop offset="0.64" stop-color="#F59C2E"/>
<stop offset="0.98" stop-color="#EB5E2C"/>
<stop offset="1" stop-color="#EB5C2C"/>
</linearGradient>
</defs>
</svg>

<svg width="64" height="64" fill="none" xmlns="http://www.w3.org/2000/svg"><rect width="64" height="64" rx="4" fill="#000"/><path d="M21.852 28.948h.02l.326.115.307.115.326.096.308.134.326.116.307.115.327.115.307.115.307.116.307.115.327.115.307.134.326.096.308.116.326.115.307.134.327.116.307.096.307.115.327.134.326.115v-4.493H21.43l-.308.154-.73.384-.748.403-.749.365-.71.384-.75.403-.748.365-.73.403-.749.384-.73.365-.73.403-.671.346L13 42.255l.749.518.73.518.73.5.748.537.73.519.749.518.326.25.422-.538.711-.96.077-.096-.077-.057-.71-.519-.75-.518-.748-.519-.73-.518-.749-.538-.192-.115.058-8.91.134-.077.75-.364.729-.365.749-.365.748-.365.711-.384.749-.365.749-.346.73-.384.73-.364z" fill="url(#paint0_linear_573_470562)"/><path d="M34.565 49.935l-.614.25-.692.288-.69.269-.692.288-.307.115-.365-.173-.691-.365-.692-.326-.672-.365-.691-.345-.691-.327-.692-.365-.69-.345-.692-.346-.691-.346-.692-.364-.653-.327-.69-.346-.078-.038v-8.986h-1.997v10.215l.692.326.69.346.692.365.691.326.653.365.692.346.69.345.692.346.691.346.692.345.69.346.692.365.672.326.692.365.69.327.27.153.403-.192.691-.25.691-.288.692-.288.672-.269.691-.268-.691-1.729-.058-.115z" fill="url(#paint1_linear_573_470562)"/><path d="M46.833 37.454l.039 4.224-.173.154-1.171.806-1.172.845-1.171.845-1.171.826-1.172.825-1.152.845-1.171.826-.691.5-.48-.366-1.152-.902-1.172-.883-1.171-.903-1.152-.883-.212-.154v-4.55l.212-.193 1.152-1.229 1.171-1.21 1.172-1.228 1.152-1.21 1.133-1.19H24.52l1.171 1.228 1.152 1.21 1.171 1.21 1.172 1.229 1.152 1.21.173.172v5.511l.998.788 1.19.902 1.153.883 1.171.903 1.172.883 1.152.903.422.326.749-.538 1.171-.806 1.152-.845 1.172-.845 1.171-.806 1.171-.845 1.172-.845 1.171-.807 1.171-.844.96-.71.192-5.185-1.152-.039-1.037-.038z" fill="url(#paint2_linear_573_470562)"/><path d="M14.902 27.622h.134l.02-5.645.748-.48.941-.557.922-.557.921-.576.922-.557.941-.576.902-.557.941-.557.922-.576.941-.576h.02l.883.519.94.518.922.538.922.518.921.519.922.518.922.538.902.518.039-.077.921-1.67-.921-.538-.941-.518-.922-.519-.922-.518-.921-.538-.922-.518-.922-.519-.94-.537-.903-.519-.038-.019-.903.538-.922.576-.94.576-.903.576-.94.557-.923.556-.921.577-.922.556-.94.576-.903.557-.941.557-.883.557-.039 6.74h.922l.94.02z" fill="url(#paint3_linear_573_470562)"/><path d="M51 22.457l-.48-.384-.48-.384-.48-.403-.48-.384-.48-.384-.5-.384-.48-.384-.48-.384-.499-.403-.365-.27-.134.154-.48.596-.48.614-.135.154.135.134.48.404.48.403.5.403.498.403.48.423.48.403.5.403.23.192.02 9.083-.25.172-.5.308-.48.307-.48.307-.499.307-.5.308-.48.307-.48.307-.48.307-.48.308-.48.307-.499.307-.48.307-.48.307-.48.308-.499.307-.48.307.48.768.5.768.076.135.403-.25.48-.288.48-.307.5-.288.48-.327.48-.288.48-.307.48-.288.48-.307.5-.288.498-.327.48-.288.48-.307.5-.288.48-.307.48-.288.48-.327.48-.288.48-.307V22.457z" fill="url(#paint4_linear_573_470562)"/><path d="M35.158 27.872v3.918l.154-.057.653-.25.652-.269.634-.25.653-.268.653-.269.634-.25.652-.268.653-.25.634-.269.653-.25.633-.268V16.985l-.73-.461-.748-.423-.749-.422-.73-.46-.748-.423-.75-.423-.729-.441-.749-.442-.73-.442-.748-.422-.75-.442-.729-.441-.73-.423-.748-.422-.404-.23-.345.191-.75.403-.748.384-.71.423-.75.403-.748.384-.75.423.75.422.748.423.461.288.288-.154.71-.384.75-.403.749-.384.288-.154.46.269.75.422.729.423.73.441.749.442.748.422.73.442.749.442.73.422.748.423.75.46.73.423.249.134v8.757h-5.242" fill="url(#paint5_linear_573_470562)"/><path d="M35.159 31.79l7.258-2.92-7.258-2.015" fill="url(#paint6_linear_573_470562)"/><path d="M28.516 31.79v-4.86l-6.644 1.978 6.644 2.861" fill="url(#paint7_linear_573_470562)"/><defs><linearGradient id="paint0_linear_573_470562" x1="13.001" y1="26.899" x2="13.001" y2="45.607" gradientUnits="userSpaceOnUse"><stop stop-color="#F6E93D"/><stop offset=".13" stop-color="#F8E330"/><stop offset=".35" stop-color="#F7C730"/><stop offset=".64" stop-color="#F59C2E"/><stop offset=".98" stop-color="#EB5E2C"/><stop offset="1" stop-color="#EB5C2C"/></linearGradient><linearGradient id="paint1_linear_573_470562" x1="20.901" y1="37.788" x2="20.901" y2="53.332" gradientUnits="userSpaceOnUse"><stop stop-color="#F6E93D"/><stop offset=".13" stop-color="#F8E330"/><stop offset=".35" stop-color="#F7C730"/><stop offset=".64" stop-color="#F59C2E"/><stop offset=".98" stop-color="#EB5E2C"/><stop offset="1" stop-color="#EB5C2C"/></linearGradient><linearGradient id="paint2_linear_573_470562" x1="24.514" y1="33.247" x2="24.514" y2="50.613" gradientUnits="userSpaceOnUse"><stop stop-color="#F6E93D"/><stop offset=".13" stop-color="#F8E330"/><stop offset=".35" stop-color="#F7C730"/><stop offset=".64" stop-color="#F59C2E"/><stop offset=".98" stop-color="#EB5E2C"/><stop offset="1" stop-color="#EB5C2C"/></linearGradient><linearGradient id="paint3_linear_573_470562" x1="13.041" y1="14.11" x2="13.041" y2="27.624" gradientUnits="userSpaceOnUse"><stop stop-color="#F6E93D"/><stop offset=".13" stop-color="#F8E330"/><stop offset=".35" stop-color="#F7C730"/><stop offset=".64" stop-color="#F59C2E"/><stop offset=".98" stop-color="#EB5E2C"/><stop offset="1" stop-color="#EB5C2C"/></linearGradient><linearGradient id="paint4_linear_573_470562" x1="40.829" y1="18.69" x2="40.829" y2="39.223" gradientUnits="userSpaceOnUse"><stop stop-color="#F6E93D"/><stop offset=".13" stop-color="#F8E330"/><stop offset=".35" stop-color="#F7C730"/><stop offset=".64" stop-color="#F59C2E"/><stop offset=".98" stop-color="#EB5E2C"/><stop offset="1" stop-color="#EB5C2C"/></linearGradient><linearGradient id="paint5_linear_573_470562" x1="26.84" y1="10.667" x2="26.84" y2="31.795" gradientUnits="userSpaceOnUse"><stop stop-color="#F6E93D"/><stop offset=".13" stop-color="#F8E330"/><stop offset=".35" stop-color="#F7C730"/><stop offset=".64" stop-color="#F59C2E"/><stop offset=".98" stop-color="#EB5E2C"/><stop offset="1" stop-color="#EB5C2C"/></linearGradient><linearGradient id="paint6_linear_573_470562" x1="35.153" y1="26.868" x2="35.153" y2="31.801" gradientUnits="userSpaceOnUse"><stop stop-color="#F6E93D"/><stop offset=".13" stop-color="#F8E330"/><stop offset=".35" stop-color="#F7C730"/><stop offset=".64" stop-color="#F59C2E"/><stop offset=".98" stop-color="#EB5E2C"/><stop offset="1" stop-color="#EB5C2C"/></linearGradient><linearGradient id="paint7_linear_573_470562" x1="28.058" y1="31.142" x2="28.922" y2="26.701" gradientUnits="userSpaceOnUse"><stop stop-color="#F6E93D"/><stop offset=".13" stop-color="#F8E330"/><stop offset=".35" stop-color="#F7C730"/><stop offset=".64" stop-color="#F59C2E"/><stop offset=".98" stop-color="#EB5E2C"/><stop offset="1" stop-color="#EB5C2C"/></linearGradient></defs></svg>
